packages/components/icon/src/assets/icons/previously-requested.svg

<svg width="24" height="24" viewBox="0 0 24 24" fill="none" xmlns="http://www.w3.org/2000/svg">
<path fill-rule="evenodd" clip-rule="evenodd" d="M3.23864 11.2242C3.23864 10.6167 3.35795 10.0201 3.59659 9.4344C3.83523 8.84865 4.17149 8.32438 4.60537 7.86157C5.0248 7.39876 5.50929 7.03719 6.05888 6.77686C6.60847 6.50206 7.20144 6.36467 7.83781 6.36467H15.2789V4L20.2469 7.73141L15.2789 11.4411V9.07645H8.07645C7.90289 9.07645 7.69318 9.11622 7.44731 9.19576C7.20145 9.27531 6.97004 9.39463 6.7531 9.55372C6.2469 9.88637 5.9938 10.2696 5.9938 10.7035C5.9938 10.8192 6.00103 10.9132 6.0155 10.9855L6.03719 11.1808L3.65083 13.0465L3.49897 12.5692C3.32541 12.1064 3.23864 11.6581 3.23864 11.2242ZM7.96798 14.3915H15.1705C15.3295 14.3915 15.532 14.3518 15.7779 14.2722C16.0238 14.1927 16.2624 14.0806 16.4938 13.936C17 13.6033 17.2531 13.2128 17.2531 12.7645C17.2531 12.6488 17.2459 12.5548 17.2314 12.4824L17.2097 12.2872L19.5961 10.4432L19.7696 10.9205C19.9287 11.3977 20.0083 11.8461 20.0083 12.2655C20.0083 12.8729 19.8926 13.4695 19.6612 14.0553C19.4298 14.641 19.0971 15.1653 18.6632 15.6281C18.2293 16.0909 17.7376 16.4525 17.188 16.7128C16.595 16.9876 16.0021 17.125 15.4091 17.125H7.96798V19.4897L3 15.7583L7.96798 12.0269V14.3915Z" fill="currentColor"/>
</svg>

<svg viewBox="0 0 24 24" fill="none" xmlns="http://www.w3.org/2000/svg"><path fill-rule="evenodd" clip-rule="evenodd" d="M3.239 11.224c0-.607.119-1.204.358-1.79a5.088 5.088 0 0 1 1.008-1.572c.42-.463.904-.825 1.454-1.085a3.922 3.922 0 0 1 1.779-.412h7.44V4l4.969 3.731-4.968 3.71V9.076H8.076c-.173 0-.383.04-.629.12a2.45 2.45 0 0 0-.694.358c-.506.332-.76.716-.76 1.15 0 .115.008.21.022.281l.022.196-2.386 1.866-.152-.478a3.82 3.82 0 0 1-.26-1.345Zm4.729 3.168h7.203c.159 0 .361-.04.607-.12a3.23 3.23 0 0 0 .716-.336c.506-.333.76-.723.76-1.171 0-.116-.008-.21-.023-.283l-.021-.195 2.386-1.844.174.478c.159.477.238.925.238 1.345 0 .607-.115 1.204-.347 1.79a4.928 4.928 0 0 1-.998 1.572 4.867 4.867 0 0 1-1.475 1.085 4.2 4.2 0 0 1-1.779.412H7.968v2.365L3 15.758l4.968-3.731v2.365Z" fill="currentColor"/></svg>
